src/images/icons/smile-sad.svg

<?xml version="1.0" encoding="UTF-8"?>
<svg width="148px" height="148px" viewBox="0 0 148 148" version="1.1" xmlns="http://www.w3.org/2000/svg" xmlns:xlink="http://www.w3.org/1999/xlink">
    <!-- Generator: Sketch 49.3 (51167) - http://www.bohemiancoding.com/sketch -->
    <title>smile-sad</title>
    <desc>Created with Sketch.</desc>
    <g id="Marvel" stroke="none" stroke-width="1" fill="none" fill-rule="evenodd">
        <g id="Marvel_My_Events_Empty" transform="translate(-766.000000, -274.000000)" fill="#C7CCD1" fill-rule="nonzero">
            <g id="Group-2" transform="translate(629.000000, 274.000000)">
                <g id="smile-sad" transform="translate(137.000000, 0.000000)">
                    <path d="M74,144 C112.659932,144 144,112.659932 144,74 C144,35.3400675 112.659932,4 74,4 C35.3400675,4 4,35.3400675 4,74 C4,112.659932 35.3400675,144 74,144 Z M74,148 C33.1309285,148 0,114.869071 0,74 C0,33.1309285 33.1309285,0 74,0 C114.869071,0 148,33.1309285 148,74 C148,114.869071 114.869071,148 74,148 Z" id="Oval-8"></path>
                    <path d="M50,66 C45.581722,66 42,62.418278 42,58 C42,53.581722 45.581722,50 50,50 C54.418278,50 58,53.581722 58,58 C58,62.418278 54.418278,66 50,66 Z" id="Oval-14"></path>
                    <path d="M98,66 C93.581722,66 90,62.418278 90,58 C90,53.581722 93.581722,50 98,50 C102.418278,50 106,53.581722 106,58 C106,62.418278 102.418278,66 98,66 Z" id="Oval-14-Copy"></path>
                    <path d="M100,113 C100,114.104569 99.1045695,115 98,115 C96.8954305,115 96,114.104569 96,113 C96,100.849736 86.1502645,91 74,91 C61.8497355,91 52,100.849736 52,113 C52,114.104569 51.1045695,115 50,115 C48.8954305,115 48,114.104569 48,113 C48,98.6405965 59.6405965,87 74,87 C88.3594035,87 100,98.6405965 100,113 Z" id="Oval-15"></path>
                </g>
            </g>
        </g>
    </g>
</svg>

<svg width="148" height="148" viewBox="0 0 148 148" xmlns="http://www.w3.org/2000/svg">
    <title>
        smile-sad
    </title>
    <g fill="#C7CCD1" fill-rule="nonzero">
        <path d="M74 144c38.66 0 70-31.34 70-70S112.66 4 74 4 4 35.34 4 74s31.34 70 70 70zm0 4c-40.87 0-74-33.13-74-74S33.13 0 74 0s74 33.13 74 74-33.13 74-74 74z"/>
        <path d="M50 66a8 8 0 1 1 0-16 8 8 0 0 1 0 16z"/>
        <path d="M98 66a8 8 0 1 1 0-16 8 8 0 0 1 0 16z"/>
        <path d="M100 113a2 2 0 0 1-4 0c0-12.15-9.85-22-22-22s-22 9.85-22 22a2 2 0 0 1-4 0c0-14.36 11.64-26 26-26s26 11.64 26 26z"/>
    </g>
</svg>
